X:1
T:Los Feliz, 87.87.87 D
T:Los Feliz, 87.87.87 D
T:William J. King, arr. John Millard Harris, 1908
T:Public Domain Courtesy of the Cyber Hymnal™
C:William J. King, arr. John Millard Harris, 1908
Z:Public Domain
Z:Courtesy of the Cyber Hymnal™
%%score ( 1 2 ) ( 3 4 )
L:1/8
Q:1/4=95
M:3/4
K:C
V:1 treble 
V:2 treble 
V:3 bass 
V:4 bass 
V:1
 [CE][DF] | [EG]3 [Ec] [FB][FA] | [EG]2 [CE]2 [EG]G | [FA]3 [CG] [B,F][CE] | [B,D]4 [CE][DF] | %5
 [EG]3 [Ec] [FB][FA] | [EG]2 [CE]2 [Ec][Ec] | [DB]3 [CA] [CE][C^F] | [B,G]4 [DG][DG] | %9
 [FB]3 [FB] [FA][FB] | [Ec]2 [EG]2 [DG][DG] | [FA]3 [GB] [Gc][Gd] | [Ge]4 [Ge][Ge] | %13
 [^Ge]3 [Ge] [Ge][Ed] | [Ed]2 [Ec]2 [^DB][DA] | [EG][EG] [Ec]2 [Fd]2 | [Ec]4 [DB][Ec] | %17
 [Fd]3 [Fd] [Ec][Fd] | [Ge]2 [Ec]2 [FB][Gc] | [Gd]3 [Gd] [Gc][Gd] | [Ge]4 [Ge][Ge] | %21
 [^Ge]3 [Ge] [Ge][Ed] | [Ed]2 [Ec]2 [^DB][DA] | [GB][GB] [Ec]2 [Fd]2 | [Ec]4 |] %25
V:2
 x2 | x6 | x5 G | x6 | x6 | x6 | x6 | x6 | x6 | x6 | x6 | x6 | x6 | x6 | x6 | x6 | x6 | x6 | x6 | %19
 x6 | x6 | x6 | x6 | x6 | x4 |] %25
V:3
 [C,G,][C,G,] | [C,C]3 [C,G,] [C,A,][C,B,] | [C,C]2 [C,G,]2 [C,C][E,C] | %3
 [F,C]3 [F,C] [D,G,][C,G,] | [G,,G,]4 [C,G,][C,G,] | [C,C]3 [C,G,] [C,A,][C,B,] | %6
 [C,C]2 [C,G,]2 [C,G,][C,G,] | [D,G,]3 [D,^F,] [D,G,][D,A,] | [G,,G,]4 [G,,B,][G,,B,] | %9
 [G,D]3 [G,D] [G,B,]G, | [C,G,]2 [C,C]2 [C,C][C,C] | [F,C]3 [F,D] [E,C][G,B,] | C4 [C,C][C,C] | %13
 [E,B,]3 [E,B,] [E,B,][^G,B,] | [^G,B,]2 A,2 [^F,C][F,C] | [G,C][G,C] [G,C]2 [G,,B,]2 | %16
 [C,C]4 G,[G,C] | [G,B,]3 [G,B,] [A,C][G,B,] | [C,C]2 [C,G,]2 [D,G,][E,C] | %19
 [G,B,]3 [F,B,] [E,C][G,B,] | C4 [C,C][C,C] | [E,B,]3 [E,B,] [E,B,][^G,B,] | %22
 [^G,B,]2 A,2 [^F,C][F,C] | [G,C][G,C] [G,C]2 [G,,B,]2 | [C,C]4 |] %25
V:4
 x2 | x6 | x6 | x6 | x6 | x6 | x6 | x6 | x6 | x5 G, | x6 | x6 | C4 x2 | x6 | x2 A,2 x2 | x6 | %16
 x4 G, x | x6 | x6 | x6 | C4 x2 | x6 | x2 A,2 x2 | x6 | x4 |] %25

